X:1
T: Miss Ferguson's Reel
C:R. Mackintosh
R:Reel
Q: 232
K:F
M:4/4
L:1/8
|:c|a2 ge fc AF|Bd cA Gg gb|af eg fc AF|Bd cA F1/2F1/2F Fc|
a2 ge fc AF|Bd cA Gg gb|af eg fc AF|Bd cA F1/2F1/2F Fc|
AF EF DF CF|GA BA Bd cB|AF EF DF CF|GA Bc AF Fc|
AF EF DF CF|GA BA Bd cB|Ac fc Bd gf|ec bg af f:|
